X:1
T:Woodbird, 76.76 D
T:Woodbird, 76.76 D
T:Traditional German Melody
T:Public Domain Courtesy of the Cyber Hymnal™
C:Traditional German Melody
Z:Public Domain
Z:Courtesy of the Cyber Hymnal™
%%score ( 1 2 ) ( 3 4 )
L:1/8
Q:1/4=115
M:4/4
K:G
V:1 treble 
V:2 treble 
V:3 bass 
V:4 bass 
V:1
 [DG]2"^Cheerfully" | [EG]2 [Dd]2 [DB]2 G2 | (F3 G) [DA]2 D2 | [DE]2 G2 [A,G]2 [DF]2 | %4
 [DG]6 [DG]2 | [EG]2 [Dd]2 [DB]2 G2 | (F3 G) [DA]2 D2 | [DE]2 G2 [A,G]2 [DF]2 | [DG]6 [DB]2 | %9
 [DG]2 [Ad]2 (dc) [GB]2 x | [EA]4 [FA]2 [Ec]2 | [DB]2 [DA]2 [DB]2 [B,G]2 | A6 [Dd]2 | %13
 [Ec]2 [DB]2 [CA]2 [DG]2 | (F3 G) [DA]2 D2 | [DE]2 G2 [A,G]2 [DF]2 | [DG]6 |] %17
V:2
 x2 | x6 G2 | D4 D2 x2 | x2 (CB,) x4 | x8 | x6 G2 | D4 D2 x2 | x2 (CB,) x4 | x8 | x4 G2 x3 | x8 | %11
 x8 | ^C2 D4 x2 | x8 | D4 D2 x2 | x2 (CB,) x4 | x6 |] %17
V:3
 [G,B,]2 | [E,B,]2 [F,A,]2 [G,B,]2 [B,,D]2 | (A,3 G,) [D,F,]2 (G,F,) | %3
 [C,E,]2 [A,,E]2 [D,D]2 [D,A,]2 | (C2 B,4) [G,B,]2 | [E,B,]2 [F,A,]2 [G,B,]2 [B,,D]2 | %6
 (A,3 G,) [D,F,]2 (G,F,) | [C,E,]2 [A,,E]2 [D,D]2 [D,A,]2 | [G,B,]6 G,2 | [G,B,]2 [F,D]2 E3 z D | %10
 D2 ^C2 [D,D]2 G,2 | G,2 [D,F,]2 [B,,F,]2 [E,G,]2 | [A,,E,]2 [D,F,]4 [B,,G,]2 | %13
 [C,G,]2 [G,,G,]2 (E,F,) [B,,G,]2 | (A,3 G,) [D,F,]2 (G,F,) | [C,E,]2 [A,,E]2 [D,D]2 [D,A,]2 | %16
 [G,,B,]6 |] %17
V:4
 x2 | x8 | D,4 B,,2 x2 | x8 | [G,,D,]6 x2 | x8 | D,4 B,,2 x2 | x8 | x6 G,2 | x4 E,2 E,2 x | %10
 A,4 (=C,E,) x2 | G,2 x6 | x8 | x4 A,,2 x2 | D,4 B,,2 x2 | x8 | x6 |] %17

